!!!OTL: Shizan zhixinren
!!!ARE: Asia, China,ÿGansu Anxi
!! I, 117, 1)
!!!SCT: C1812
!!!YEM: Copyright 1995, estate of Helmut Schaffrath.
**kern
*ICvox
*Ivox
*M2/4
*k[f#c#]
*D:
{4a
8dd
8b
=1
4a
4a
=2
8a
16a
16dd
8a
16b
16a
=3
8g
16f#
16e
8d}
{8c#
=4
8d
8d
8c#
8d
=5
8e
8r
4a
=6
8g
16f#
16e
8d}
{8c#
=7
8d
16d
16d
8e
16c#
16B
=8
2A
=9
8a
16a
16a
8e
8a
=10
8g
16f#
16e
8d
8A
=11
8d
16d
16d
8e
16c#
16B
=12
2A}
==
!!!AGN: Xiaodiao, Shibeijiu
!! Han
!!!ONB: ESAC (Essen Associative Code) Database: SENGANSU
!!!AMT: simple duple
!!!AIN: vox
!!!EED: Helmut Schaffrath
!!!EEV: 1.0
*-
